; generated by Slic3r 0.9.9 on 2015-10-26 at 22:28:02

; layer_height = 0.3
; perimeters = 4
; top_solid_layers = 3
; bottom_solid_layers = 3
; fill_density = 0.4
; perimeter_speed = 50
; infill_speed = 60
; travel_speed = 60
; nozzle_diameter = 0.5
; filament_diameter = 2.75
; extrusion_multiplier = 1.1
; perimeters extrusion width = 0.70mm
; infill extrusion width = 0.70mm
; solid infill extrusion width = 0.70mm
; top infill extrusion width = 0.70mm
; first layer extrusion width = 0.60mm

G21 ; set units to millimeters
M107
M190 S55 ; wait for bed temperature to be reached
M104 S185 ; set temperature
G28 ; home all axes
G1 Z5 F5000 ; lift nozzle
M109 S185 ; wait for temperature to be reached
G90 ; use absolute coordinates
G92 E0
M82 ; use absolute distances for extrusion
G1 F1800.000 E-1.00000
G92 E0
G1 Z0.300 F3600.000
G1 X2.084 Y21.197
G1 F1800.000 E1.00000
G1 X29.894 Y-0.743 F900.000 E2.13860
G1 X30.184 Y-0.943 E2.14993
G1 X30.344 Y-1.023 E2.15568
G1 X30.514 Y-1.093 E2.16159
G1 X30.854 Y-1.193 E2.17298
G1 X31.034 Y-1.223 E2.17884
G1 X31.394 Y-1.233 E2.19042
G1 X195.544 Y3.707 E7.46915
G1 X195.864 Y3.737 E7.47948
G1 X196.174 Y3.807 E7.48969
G1 X196.474 Y3.927 E7.50008
G1 X196.754 Y4.087 E7.51045
G1 X197.014 Y4.287 E7.52099
G1 X197.334 Y4.637 E7.53623
G1 X197.584 Y5.057 E7.55194
G1 X197.694 Y5.357 E7.56222
G1 X197.784 Y5.827 E7.57760
G1 X198.874 Y107.667 E10.85127
G1 X198.874 Y197.847 E13.74996
G1 X198.824 Y198.177 E13.76069
G1 X198.674 Y198.637 E13.77624
G1 X198.524 Y198.927 E13.78674
G1 X198.324 Y199.187 E13.79728
G1 X197.974 Y199.527 E13.81297
G1 X197.704 Y199.707 E13.82340
G1 X197.254 Y199.897 E13.83910
G1 X196.934 Y199.967 E13.84963
G1 X196.614 Y199.997 E13.85996
G1 X137.214 Y201.227 E15.76968
G1 X79.134 Y201.227 E17.63657
G1 X3.244 Y200.367 E20.07609
G1 X2.924 Y200.317 E20.08650
G1 X2.454 Y200.157 E20.10246
G1 X2.164 Y199.997 E20.11311
G1 X1.904 Y199.797 E20.12365
G1 X1.674 Y199.567 E20.13411
G1 X1.394 Y199.157 E20.15007
G1 X1.214 Y198.707 E20.16565
G1 X1.124 Y198.217 E20.18166
G1 X1.204 Y22.847 E25.81865
G1 X1.254 Y22.497 E25.83001
G1 X1.434 Y22.007 E25.84679
G1 X1.604 Y21.707 E25.85788
G1 X1.824 Y21.437 E25.86907
G1 X2.018 Y21.253 E25.87766
G1 X2.434 Y21.657 F3600.000
G1 X30.244 Y-0.283 F900.000 E27.01626
G1 X30.504 Y-0.453 E27.02625
G1 X30.634 Y-0.513 E27.03085
G1 X30.784 Y-0.573 E27.03604
G1 X31.074 Y-0.643 E27.04563
G1 X31.374 Y-0.653 E27.05528
G1 X195.664 Y4.287 E32.33851
G1 X195.944 Y4.347 E32.34771
G1 X196.204 Y4.437 E32.35655
G1 X196.554 Y4.657 E32.36984
G1 X196.854 Y4.957 E32.38348
G1 X197.064 Y5.317 E32.39688
G1 X197.184 Y5.717 E32.41030
G1 X197.214 Y5.997 E32.41935
G1 X198.304 Y107.667 E35.68756
G1 X198.304 Y197.687 E38.58111
G1 X198.244 Y198.107 E38.59475
G1 X198.154 Y198.377 E38.60389
G1 X198.024 Y198.627 E38.61295
G1 X197.854 Y198.847 E38.62189
G1 X197.644 Y199.047 E38.63121
G1 X197.284 Y199.267 E38.64477
G1 X196.884 Y199.397 E38.65829
G1 X196.604 Y199.427 E38.66734
G1 X137.204 Y200.657 E40.57707
G1 X79.144 Y200.657 E42.44332
G1 X3.414 Y199.797 E44.87769
G1 X3.134 Y199.767 E44.88674
G1 X2.854 Y199.697 E44.89602
G1 X2.474 Y199.507 E44.90968
G1 X2.254 Y199.327 E44.91881
G1 X1.974 Y198.997 E44.93273
G1 X1.844 Y198.747 E44.94178
G1 X1.754 Y198.477 E44.95093
G1 X1.694 Y198.057 E44.96457
G1 X1.774 Y23.017 E50.59095
G1 X1.804 Y22.707 E50.60096
G1 X1.954 Y22.257 E50.61621
G1 X2.114 Y21.987 E50.62630
G1 X2.370 Y21.715 E50.63829
G1 X2.794 Y22.107 F3600.000
G1 X30.604 Y0.167 F900.000 E51.77689
G1 X30.834 Y0.027 E51.78555
G1 X30.964 Y-0.023 E51.79002
G1 X31.224 Y-0.073 E51.79854
G1 X31.354 Y-0.083 E51.80273
G1 X195.504 Y4.857 E57.08146
G1 X195.744 Y4.887 E57.08923
G1 X195.964 Y4.967 E57.09675
G1 X196.164 Y5.087 E57.10425
G1 X196.344 Y5.247 E57.11199
G1 X196.534 Y5.547 E57.12341
G1 X196.604 Y5.767 E57.13083
G1 X196.634 Y6.007 E57.13860
G1 X197.724 Y107.677 E60.40681
G1 X197.724 Y197.687 E63.30004
G1 X197.694 Y197.927 E63.30781
G1 X197.624 Y198.147 E63.31523
G1 X197.574 Y198.257 E63.31912
G1 X197.434 Y198.457 E63.32696
G1 X197.254 Y198.617 E63.33471
G1 X197.054 Y198.737 E63.34220
G1 X196.824 Y198.817 E63.35003
G1 X196.584 Y198.847 E63.35780
G1 X137.184 Y200.077 E65.26753
G1 X79.154 Y200.077 E67.13281
G1 X3.424 Y199.217 E69.56719
G1 X3.064 Y199.157 E69.57892
G1 X2.844 Y199.057 E69.58669
G1 X2.654 Y198.917 E69.59428
G1 X2.494 Y198.737 E69.60202
G1 X2.374 Y198.527 E69.60979
G1 X2.304 Y198.297 E69.61752
G1 X2.274 Y198.057 E69.62529
G1 X2.274 Y188.057 E69.94673
G1 X2.354 Y23.017 E75.25168
G1 X2.384 Y22.757 E75.26009
G1 X2.474 Y22.507 E75.26863
G1 X2.614 Y22.287 E75.27701
G1 X2.732 Y22.168 E75.28241
G1 X3.154 Y22.567 F3600.000
G1 X30.964 Y0.627 F900.000 E76.42101
G1 X31.104 Y0.537 E76.42636
G1 X31.264 Y0.497 E76.43166
G1 X195.494 Y5.437 E81.71296
G1 X195.664 Y5.467 E81.71851
G1 X195.884 Y5.607 E81.72689
G1 X195.994 Y5.757 E81.73287
G1 X196.054 Y6.007 E81.74113
G1 X197.144 Y107.677 E85.00934
G1 X197.144 Y197.687 E87.90257
G1 X197.114 Y197.867 E87.90843
G1 X197.034 Y198.027 E87.91418
G1 X196.914 Y198.147 E87.91964
G1 X196.834 Y198.197 E87.92267
G1 X196.754 Y198.237 E87.92555
G1 X196.574 Y198.267 E87.93141
G1 X137.174 Y199.497 E89.84114
G1 X79.154 Y199.497 E91.70610
G1 X3.424 Y198.637 E94.14048
G1 X3.254 Y198.607 E94.14603
G1 X3.094 Y198.527 E94.15178
G1 X3.024 Y198.467 E94.15474
G1 X2.914 Y198.317 E94.16072
G1 X2.854 Y198.057 E94.16930
G1 X2.854 Y188.057 E94.49073
G1 X2.934 Y23.017 E99.79568
G1 X2.944 Y22.917 E99.79891
G1 X3.014 Y22.717 E99.80572
G1 X3.092 Y22.628 E99.80953
G1 F1800.000 E98.80953
G92 E0
G1 X105.248 Y83.079 F3600.000
G1 F1800.000 E1.00000
G1 X105.581 Y82.635 F360.000 E1.01785
G1 X105.982 Y82.250 E1.03571
G1 X106.439 Y81.935 E1.05356
G1 X106.941 Y81.697 E1.07141
G1 X107.474 Y81.542 E1.08927
G1 X108.026 Y81.475 E1.10712
G1 X108.440 Y81.492 E1.12044
G1 X108.581 Y81.497 E1.12497
G1 X109.125 Y81.609 E1.14282
G1 X109.644 Y81.805 E1.16067
G1 X110.125 Y82.083 E1.17853
G1 X110.555 Y82.434 E1.19638
G1 X110.923 Y82.850 E1.21423
G1 X111.220 Y83.319 E1.23208
G1 X111.438 Y83.830 E1.24993
G1 X111.571 Y84.370 E1.26778
G1 X111.616 Y84.923 E1.28564
G1 X111.571 Y85.477 E1.30349
G1 X111.438 Y86.016 E1.32134
G1 X111.220 Y86.527 E1.33919
G1 X110.923 Y86.996 E1.35704
G1 X110.555 Y87.412 E1.37489
G1 X110.234 Y87.674 E1.38823
G1 X110.125 Y87.764 E1.39275
G1 X109.644 Y88.041 E1.41060
G1 X109.125 Y88.238 E1.42846
G1 X108.581 Y88.349 E1.44630
G1 X108.025 Y88.372 E1.46416
G1 X107.614 Y88.322 E1.47748
G1 X107.474 Y88.305 E1.48201
G1 X106.941 Y88.150 E1.49986
G1 X106.439 Y87.912 E1.51772
G1 X105.982 Y87.597 E1.53556
G1 X105.581 Y87.212 E1.55342
G1 X105.248 Y86.768 E1.57127
G1 X104.990 Y86.276 E1.58913
G1 X104.814 Y85.749 E1.60697
G1 X104.725 Y85.201 E1.62483
G1 X104.725 Y84.646 E1.64268
G1 X104.814 Y84.097 E1.66053
G1 X104.990 Y83.571 E1.67838
G1 X105.207 Y83.156 E1.69344
G1 X105.738 Y83.389 F3600.000
G1 X106.016 Y83.020 F360.000 E1.70829
G1 X106.349 Y82.700 E1.72314
G1 X106.729 Y82.437 E1.73799
G1 X107.146 Y82.239 E1.75284
G1 X107.590 Y82.111 E1.76769
G1 X108.049 Y82.055 E1.78254
G1 X108.416 Y82.070 E1.79437
G1 X108.511 Y82.074 E1.79739
G1 X108.963 Y82.166 E1.81224
G1 X109.395 Y82.330 E1.82709
G1 X109.795 Y82.561 E1.84194
G1 X110.153 Y82.853 E1.85679
G1 X110.459 Y83.199 E1.87164
G1 X110.706 Y83.589 E1.88649
G1 X110.887 Y84.014 E1.90134
G1 X110.998 Y84.463 E1.91619
G1 X111.035 Y84.923 E1.93104
G1 X110.998 Y85.384 E1.94589
G1 X110.887 Y85.832 E1.96074
G1 X110.706 Y86.257 E1.97559
G1 X110.459 Y86.648 E1.99044
G1 X110.153 Y86.994 E2.00528
G1 X109.868 Y87.226 E2.01711
G1 X109.795 Y87.286 E2.02014
G1 X109.395 Y87.517 E2.03498
G1 X108.963 Y87.681 E2.04984
G1 X108.511 Y87.773 E2.06468
G1 X108.049 Y87.792 E2.07954
G1 X107.684 Y87.747 E2.09136
G1 X107.590 Y87.736 E2.09439
G1 X107.147 Y87.607 E2.10923
G1 X106.729 Y87.409 E2.12408
G1 X106.349 Y87.147 E2.13893
G1 X106.016 Y86.827 E2.15379
G1 X105.738 Y86.458 E2.16863
G1 X105.524 Y86.048 E2.18348
G1 X105.377 Y85.610 E2.19833
G1 X105.303 Y85.154 E2.21318
G1 X105.303 Y84.692 E2.22803
G1 X105.377 Y84.236 E2.24288
G1 X105.524 Y83.798 E2.25773
G1 X105.698 Y83.466 E2.26979
G1 X106.207 Y83.741 F3600.000
G1 X106.450 Y83.405 F360.000 E2.28314
G1 X106.716 Y83.149 E2.29499
G1 X107.019 Y82.940 E2.30684
G1 X107.352 Y82.782 E2.31868
G1 X107.706 Y82.679 E2.33053
G1 X108.072 Y82.635 E2.34238
G1 X108.393 Y82.648 E2.35270
G1 X108.802 Y82.724 E2.36606
G1 X109.146 Y82.854 E2.37790
G1 X109.465 Y83.039 E2.38975
G1 X109.751 Y83.272 E2.40160
G1 X109.995 Y83.547 E2.41345
G1 X110.192 Y83.859 E2.42529
G1 X110.337 Y84.198 E2.43714
G1 X110.425 Y84.556 E2.44899
G1 X110.455 Y84.923 E2.46083
G1 X110.425 Y85.291 E2.47268
G1 X110.337 Y85.649 E2.48453
G1 X110.192 Y85.988 E2.49637
G1 X109.995 Y86.299 E2.50822
G1 X109.751 Y86.575 E2.52007
G1 X109.465 Y86.808 E2.53192
G1 X109.146 Y86.992 E2.54376
G1 X108.802 Y87.123 E2.55561
G1 X108.441 Y87.197 E2.56746
G1 X108.072 Y87.212 E2.57930
G1 X107.754 Y87.173 E2.58963
G1 X107.352 Y87.065 E2.60298
G1 X107.019 Y86.907 E2.61483
G1 X106.716 Y86.697 E2.62668
G1 X106.450 Y86.442 E2.63852
G1 X106.229 Y86.147 E2.65037
G1 X106.080 Y85.863 E2.66069
G1 X105.941 Y85.471 E2.67405
G1 X105.882 Y85.108 E2.68589
G1 X105.882 Y84.739 E2.69774
G1 X105.941 Y84.375 E2.70959
G1 X106.058 Y84.026 E2.72143
G1 X106.166 Y83.818 E2.72897
G1 X106.019 Y83.371 F3600.000
G1 X83.302 Y176.724
G1 X83.646 Y176.854 F360.000 E2.74081
G1 X83.966 Y177.039 E2.75266
G1 X84.251 Y177.272 E2.76451
G1 X84.495 Y177.547 E2.77635
G1 X84.692 Y177.859 E2.78820
G1 X84.837 Y178.198 E2.80005
G1 X84.914 Y178.510 E2.81037
G1 X84.955 Y178.923 E2.82372
G1 X84.925 Y179.291 E2.83557
G1 X84.837 Y179.649 E2.84742
G1 X84.692 Y179.988 E2.85927
G1 X84.495 Y180.299 E2.87111
G1 X84.251 Y180.575 E2.88296
G1 X83.965 Y180.808 E2.89481
G1 X83.687 Y180.969 E2.90513
G1 X83.302 Y181.123 E2.91848
G1 X82.941 Y181.197 E2.93033
G1 X82.572 Y181.212 E2.94218
G1 X82.206 Y181.167 E2.95403
G1 X81.852 Y181.065 E2.96587
G1 X81.562 Y180.927 E2.97619
G1 X81.216 Y180.697 E2.98955
G1 X80.950 Y180.442 E3.00140
G1 X80.729 Y180.147 E3.01325
G1 X80.558 Y179.821 E3.02509
G1 X80.441 Y179.471 E3.03694
G1 X80.389 Y179.154 E3.04726
G1 X80.382 Y178.739 E3.06061
G1 X80.441 Y178.375 E3.07246
G1 X80.558 Y178.026 E3.08431
G1 X80.729 Y177.699 E3.09616
G1 X80.922 Y177.443 E3.10648
G1 X81.216 Y177.149 E3.11983
G1 X81.519 Y176.940 E3.13168
G1 X81.852 Y176.782 E3.14353
G1 X82.206 Y176.679 E3.15537
G1 X82.572 Y176.635 E3.16722
G1 X82.940 Y176.650 E3.17907
G1 X83.217 Y176.706 E3.18813
G1 X83.574 Y176.475 F3600.000
G1 X131.382 Y178.739
G1 X131.441 Y178.375 F360.000 E3.19997
G1 X131.558 Y178.026 E3.21182
G1 X131.729 Y177.699 E3.22367
G1 X131.950 Y177.405 E3.23552
G1 X132.216 Y177.149 E3.24736
G1 X132.519 Y176.940 E3.25921
G1 X132.852 Y176.782 E3.27106
G1 X133.206 Y176.679 E3.28290
G1 X133.572 Y176.635 E3.29475
G1 X133.940 Y176.650 E3.30660
G1 X134.302 Y176.724 E3.31845
G1 X134.646 Y176.854 E3.33029
G1 X134.965 Y177.039 E3.34214
G1 X135.251 Y177.272 E3.35399
G1 X135.495 Y177.547 E3.36583
G1 X135.692 Y177.859 E3.37768
G1 X135.837 Y178.198 E3.38953
G1 X135.925 Y178.556 E3.40138
G1 X135.955 Y178.923 E3.41322
G1 X135.925 Y179.291 E3.42507
G1 X135.837 Y179.649 E3.43692
G1 X135.692 Y179.988 E3.44876
G1 X135.495 Y180.299 E3.46061
G1 X135.251 Y180.575 E3.47246
G1 X134.965 Y180.808 E3.48430
G1 X134.646 Y180.992 E3.49615
G1 X134.302 Y181.123 E3.50800
G1 X133.941 Y181.197 E3.51985
G1 X133.572 Y181.212 E3.53169
G1 X133.206 Y181.167 E3.54354
G1 X132.852 Y181.065 E3.55539
G1 X132.519 Y180.907 E3.56724
G1 X132.216 Y180.697 E3.57908
G1 X131.950 Y180.442 E3.59093
G1 X131.729 Y180.147 E3.60278
G1 X131.558 Y179.821 E3.61462
G1 X131.441 Y179.471 E3.62647
G1 X131.382 Y179.108 E3.63832
G1 X131.382 Y178.826 E3.64738
G1 X131.084 Y178.522 F3600.000
G1 X129.720 Y178.144
G1 X129.646 Y178.599 F900.000 E3.66220
G1 X129.646 Y179.248 E3.68305
G1 X129.750 Y179.888 E3.70391
G1 X129.956 Y180.503 E3.72476
G1 X130.257 Y181.078 E3.74561
G1 X130.370 Y181.228 E3.75164
G1 X130.647 Y181.597 E3.76647
G1 X131.115 Y182.046 E3.78733
G1 X131.649 Y182.415 E3.80818
G1 X132.235 Y182.693 E3.82903
G1 X132.858 Y182.873 E3.84989
G1 X133.502 Y182.952 E3.87075
G1 X134.151 Y182.925 E3.89160
G1 X135.140 Y182.723 E3.92405
G1 X135.140 Y196.898 E4.37968
G1 X81.189 Y196.898 E6.11383
G1 X81.189 Y182.680 E6.57087
G1 X81.858 Y182.873 E6.59325
G1 X82.502 Y182.952 E6.61410
G1 X83.151 Y182.925 E6.63496
G1 X83.786 Y182.796 E6.65581
G1 X84.393 Y182.566 E6.67666
G1 X84.955 Y182.241 E6.69753
G1 X85.458 Y181.830 E6.71839
G1 X85.888 Y181.345 E6.73924
G1 X86.234 Y180.797 E6.76008
G1 X86.489 Y180.200 E6.78094
G1 X86.644 Y179.570 E6.80179
G1 X86.696 Y178.923 E6.82265
G1 X86.644 Y178.277 E6.84350
G1 X86.599 Y178.095 E6.84953
G1 X86.489 Y177.647 E6.86435
G1 X86.234 Y177.050 E6.88520
G1 X85.887 Y176.501 E6.90607
G1 X85.457 Y176.016 E6.92693
G1 X84.955 Y175.606 E6.94776
G1 X84.393 Y175.281 E6.96863
G1 X84.217 Y175.215 E6.97466
G1 X83.786 Y175.051 E6.98948
G1 X83.150 Y174.921 E7.01036
G1 X82.502 Y174.895 E7.03120
G1 X81.858 Y174.973 E7.05206
G1 X81.189 Y175.167 E7.07443
G1 X81.189 Y109.634 E9.18089
G1 X104.138 Y80.948 E10.36169
G1 X106.560 Y80.948 E10.43954
G1 X106.611 Y81.113 E10.44508
G1 X105.615 Y81.800 E10.48399
G1 X105.147 Y82.250 E10.50485
G1 X104.757 Y82.769 E10.52571
G1 X104.456 Y83.343 E10.54657
G1 X104.250 Y83.959 E10.56742
G1 X104.146 Y84.599 E10.58827
G1 X104.146 Y85.248 E10.60912
G1 X104.250 Y85.888 E10.62998
G1 X104.456 Y86.503 E10.65083
G1 X104.757 Y87.078 E10.67169
G1 X105.147 Y87.596 E10.69253
G1 X105.615 Y88.046 E10.71340
G1 X106.149 Y88.415 E10.73425
G1 X106.735 Y88.693 E10.75511
G1 X107.358 Y88.873 E10.77596
G1 X108.002 Y88.951 E10.79681
G1 X108.651 Y88.925 E10.81767
G1 X109.286 Y88.796 E10.83852
G1 X109.893 Y88.566 E10.85938
G1 X110.454 Y88.241 E10.88023
G1 X110.957 Y87.831 E10.90109
G1 X111.387 Y87.345 E10.92195
G1 X111.734 Y86.797 E10.94280
G1 X111.989 Y86.200 E10.96365
G1 X112.144 Y85.570 E10.98450
G1 X112.196 Y84.923 E11.00536
G1 X112.144 Y84.277 E11.02622
G1 X111.988 Y83.647 E11.04707
G1 X111.734 Y83.050 E11.06793
G1 X111.387 Y82.502 E11.08878
G1 X110.957 Y82.016 E11.10963
G1 X110.455 Y81.606 E11.13049
G1 X109.674 Y81.155 E11.15945
G1 X109.730 Y80.948 E11.16633
G1 X112.191 Y80.948 E11.24545
G1 X135.140 Y109.634 E12.42624
G1 X135.140 Y175.123 E14.53130
G1 X134.150 Y174.921 E14.56377
G1 X133.502 Y174.895 E14.58461
G1 X132.858 Y174.973 E14.60547
G1 X132.235 Y175.154 E14.62632
G1 X131.649 Y175.432 E14.64717
G1 X131.115 Y175.800 E14.66803
G1 X130.647 Y176.250 E14.68888
G1 X130.257 Y176.769 E14.70974
G1 X129.956 Y177.343 E14.73060
G1 X129.750 Y177.958 E14.75145
G1 X129.734 Y178.058 E14.75469
G1 X130.314 Y178.097 F3600.000
G1 X130.225 Y178.646 F900.000 E14.77254
G1 X130.225 Y179.201 E14.79039
G1 X130.314 Y179.749 E14.80825
G1 X130.490 Y180.276 E14.82609
G1 X130.748 Y180.768 E14.84394
G1 X131.081 Y181.212 E14.86180
G1 X131.482 Y181.597 E14.87966
G1 X131.939 Y181.912 E14.89750
G1 X132.441 Y182.150 E14.91536
G1 X132.974 Y182.305 E14.93321
G1 X133.526 Y182.372 E14.95106
G1 X134.081 Y182.349 E14.96892
G1 X134.625 Y182.238 E14.98676
G1 X135.144 Y182.041 E15.00461
G1 X135.718 Y181.710 E15.02593
G1 X135.718 Y197.477 E15.53275
G1 X80.611 Y197.477 E17.30408
G1 X80.611 Y181.756 E17.80940
G1 X81.441 Y182.150 E17.83892
G1 X81.974 Y182.305 E17.85678
G1 X82.526 Y182.372 E17.87463
G1 X83.081 Y182.349 E17.89249
G1 X83.625 Y182.238 E17.91033
G1 X84.144 Y182.041 E17.92818
G1 X84.625 Y181.763 E17.94604
G1 X85.055 Y181.412 E17.96390
G1 X85.423 Y180.996 E17.98175
G1 X85.720 Y180.527 E17.99959
G1 X85.938 Y180.016 E18.01745
G1 X86.071 Y179.477 E18.03530
G1 X86.116 Y178.923 E18.05315
G1 X86.071 Y178.370 E18.07100
G1 X85.938 Y177.831 E18.08885
G1 X85.720 Y177.320 E18.10670
G1 X85.423 Y176.850 E18.12456
G1 X85.055 Y176.434 E18.14242
G1 X84.625 Y176.083 E18.16025
G1 X84.144 Y175.805 E18.17812
G1 X83.625 Y175.609 E18.19596
G1 X83.487 Y175.580 E18.20049
G1 X83.080 Y175.497 E18.21383
G1 X82.525 Y175.475 E18.23167
G1 X81.974 Y175.542 E18.24953
G1 X81.441 Y175.697 E18.26738
G1 X80.611 Y176.090 E18.29690
G1 X80.611 Y109.431 E20.43957
G1 X103.860 Y80.370 E21.63583
